svg/fast_food-11.svg

<?xml version="1.0" encoding="utf-8"?>
<!-- Generator: Adobe Illustrator 19.2.1, SVG Export Plug-In . SVG Version: 6.00 Build 0)  -->
<!DOCTYPE svg PUBLIC "-//W3C//DTD SVG 1.1//EN" "http://www.w3.org/Graphics/SVG/1.1/DTD/svg11.dtd">
<svg version="1.1" id="Layer_1" xmlns="http://www.w3.org/2000/svg" xmlns:xlink="http://www.w3.org/1999/xlink" x="0px" y="0px"
	 width="11px" height="11px" viewBox="0 0 11 11" style="enable-background:new 0 0 11 11;" xml:space="preserve">
<path d="M10,8L10,8c0,1.1046-0.8954,2-2,2H3c-1.1046,0-2-0.8954-2-2H10z M10,5H1C0.4477,5,0,5.4477,0,6s0.4477,1,1,1h9
	c0.5523,0,1-0.4477,1-1S10.5523,5,10,5z M8.55,1H2.46C1.6537,1,1,1.6536,1,2.46c0,0.0033,0,0.0067,0,0.01V4h9V2.47
	C10.0055,1.6637,9.3564,1.0055,8.55,1C8.55,1,8.55,1,8.55,1z M3.55,3C3.2752,3.0276,3.0301,2.8273,3.0025,2.5525
	C2.9749,2.2777,3.1753,2.0326,3.45,2.005c0.2748-0.0276,0.5199,0.1727,0.5475,0.4475C3.9991,2.4683,3.9999,2.4841,4,2.5
	C4,2.7761,3.7761,3,3.5,3H3.55z M7.55,3C7.2752,3.0276,7.0301,2.8273,7.0025,2.5525S7.1753,2.0326,7.45,2.005
	c0.2748-0.0276,0.5199,0.1727,0.5475,0.4475C7.9991,2.4683,7.9999,2.4841,8,2.5C8,2.7761,7.7761,3,7.5,3H7.55z"/>
</svg>

<svg xmlns="http://www.w3.org/2000/svg" width="11" height="11">
    <path d="M10 8a2 2 0 0 1-2 2H3a2 2 0 0 1-2-2h9zm0-3H1a1 1 0 1 0 0 2h9a1 1 0 1 0 0-2zM8.55 1H2.46A1.46 1.46 0 0 0 1 2.46V4h9V2.47A1.46 1.46 0 0 0 8.55 1zm-5 2A.5.5 0 1 1 4 2.5a.5.5 0 0 1-.5.5h.05zm4 0A.5.5 0 1 1 8 2.5a.5.5 0 0 1-.5.5h.05z"/>
</svg>
